img/icon2-notion.svg

<svg width="49" height="48" viewBox="0 0 49 48" fill="none" xmlns="http://www.w3.org/2000/svg">
<path d="M11.2827 10.8537C12.5352 11.8747 13.0096 11.8026 15.3742 11.6444L37.6657 10.3072C38.1402 10.3072 37.7454 9.83275 37.586 9.75305L33.883 7.0773C33.1783 6.52317 32.2295 5.8982 30.4166 6.04875L8.83724 7.63016C8.04653 7.70227 7.88839 8.09826 8.20467 8.41454L11.2827 10.8537ZM12.62 16.0534V39.5038C12.62 40.7626 13.2462 41.2371 14.6632 41.1574L39.1624 39.7404C40.5793 39.6607 40.7438 38.7979 40.7438 37.7706V14.4783C40.7438 13.4498 40.3478 12.9032 39.4787 12.9829L13.88 14.4783C12.9312 14.558 12.6212 15.0248 12.6212 16.0471L12.62 16.0534ZM36.8029 17.3046C36.9611 18.0169 36.8029 18.7215 36.0907 18.8076L34.9116 19.0454V36.3549C33.883 36.9091 32.9417 37.2253 32.1574 37.2253C30.8922 37.2253 30.576 36.8293 29.6334 35.6502L21.9111 23.5265V35.2555L24.3553 35.8097C24.3553 35.8097 24.3553 37.2266 22.3855 37.2266L16.9492 37.5429C16.7911 37.2266 16.9492 36.4359 17.5034 36.2841L18.9203 35.8881V20.3839L16.9505 20.2258C16.7924 19.5135 17.1884 18.4926 18.2878 18.4141L24.1187 18.0181L32.1574 30.3V19.4338L30.1079 19.196C29.9497 18.3332 30.576 17.7006 31.3667 17.6272L36.8029 17.3046ZM7.02557 5.50348L29.4753 3.84995C32.2295 3.61211 32.9418 3.77025 34.6737 5.02905L41.8432 10.0693C43.0223 10.9321 43.4183 11.17 43.4183 12.1125V39.7417C43.4183 41.4749 42.7857 42.4959 40.5844 42.654L14.5038 44.2291C12.8566 44.3088 12.0658 44.0709 11.1954 42.9703L5.91732 36.1171C4.9748 34.8583 4.58008 33.9158 4.58008 32.8164V8.25893C4.58008 6.84198 5.21264 5.66288 7.02431 5.50474L7.02557 5.50348Z" fill="#737380"/>
</svg>

<svg width="49" height="48" fill="none" xmlns="http://www.w3.org/2000/svg"><path d="M11.283 10.854c1.252 1.02 1.727.949 4.091.79l22.292-1.337c.474 0 .08-.474-.08-.554l-3.703-2.676c-.705-.554-1.654-1.179-3.466-1.028L8.837 7.63c-.79.072-.949.468-.632.785l3.078 2.439Zm1.337 5.2v23.45c0 1.259.626 1.733 2.043 1.653l24.5-1.417c1.416-.08 1.58-.942 1.58-1.97V14.479c0-1.028-.395-1.575-1.264-1.495L13.88 14.478c-.949.08-1.259.547-1.259 1.57l-.001.005Zm24.183 1.25c.158.713 0 1.418-.712 1.504l-1.18.237v17.31c-1.028.554-1.97.87-2.754.87-1.265 0-1.581-.396-2.524-1.575l-7.722-12.123v11.728l2.444.555s0 1.417-1.97 1.417l-5.436.316c-.158-.316 0-1.107.554-1.259l1.417-.396V20.384l-1.97-.158c-.158-.712.238-1.733 1.338-1.812l5.83-.396 8.04 12.282V19.434l-2.05-.238c-.158-.863.468-1.495 1.259-1.569l5.436-.322ZM7.026 5.505l22.45-1.654c2.754-.238 3.466-.08 5.198 1.179l7.17 5.04c1.178.863 1.574 1.101 1.574 2.043v27.63c0 1.733-.632 2.754-2.834 2.912l-26.08 1.575c-1.647.08-2.438-.158-3.309-1.259l-5.278-6.853c-.942-1.259-1.337-2.201-1.337-3.3V8.258c0-1.417.633-2.596 2.444-2.754l.002-.002Z" fill="#737380"/></svg>
